X:1
T:Title
%%score ( 1 2 ) ( 3 4 )
L:1/8
Q:1/4=88
M:4/4
K:Eb
V:1 treble nm="Grand Piano, Soprano"
V:2 treble 
V:3 bass nm="Choir Pad, Are You Ready?"
V:4 bass 
V:1
 [EG][FA][GB][GB] [GB][Ac][GB][FA] | [EG][GB][Ac][ce] [Bd][Ac] [GB]2 | %2
w: By~Edmond~Simon~Lorenz * * * * * * *||
 [EG][FA][GB][GB] [GB][Ac][GB][EG] | [DF]E[EG][DF] [DF]>[EG] [DF]2 | G>F E<G G->[EG-] [EG-]<[EG] | %5
w: |||
 e>d c<e e->[Ae-] [Ae-]<[Ae] | [Ad][Ac] [GB]2 [EG]2 [DF]E | [GB]>[EG] [DF]6 | z4 G4 | %9
w: ||||
 e>d c<e e->[Ae-] [Ae-]<[Ae] | [Ad][Ac] [GB]2 [EG]2 [DF]E | [EG]>[DF] E6- | E2 z2 z4 |] %13
w: ||||
V:2
 x8 | x8 | x8 | x8 | z4 E2 z2 | z4 A2 z2 | x8 | x8 | G>F E<G E>E E<E | z4 A2 z2 | x8 | x8 | x8 |] %13
V:3
 [E,B,][E,B,][E,E][E,E] [E,E][E,E][E,E][E,B,] | [E,B,][E,E][A,E][A,E] [A,E][A,E] [E,E]2 | %2
 [E,B,][E,B,][E,E][E,E] [E,E][E,E][E,E][E,B,] | %3
 [E,A,][E,G,][B,,B,][B,,B,] [B,,B,]>[B,,B,] [B,,B,]2 | B,>A, G,<B, B,->[E,B,-] [E,B,-]<[E,B,] | %5
 C>B, A,<[K:treble]C C->[A,C-] [A,C-]<[A,C] | [A,D][A,E] [E,E]2 [E,B,]2 [E,A,][E,G,] | %7
 [E,E]>[E,B,] [B,,B,]6 | z4 B,4 | C>B, A,<[K:treble]C C->[A,C-] [A,C-]<[A,C] | %10
 [A,D][A,E] [B,E]2 B,2 [B,,A,][B,,G,] | [B,,B,]>[B,,A,] [E,G,]6- | [E,G,]2 z2 z4 |] %13
V:4
 x8 | x8 | x8 | x8 | z4 E,2 z2 | z4[K:treble] A,2 z2 | x8 | x8 | B,>A, G,<B, E,>E, E,<E, | %9
 z4[K:treble] A,2 z2 | x8 | x8 | x8 |] %13

